X: 3
T: The Banks Of Newfoundland
R: jig
M: 6/8
L: 1/8
K: Gmaj
|:d/c/|BAG AGE | GBd gfe | ded BGA | BAA Adc |
BAG AGE | GBd gfe | ded BGA | BGG G2 :|
|:B/c/| d2g gfg | eaa aga | bge dBG |
[1 BAG A2B/c/ | d2g gfg | eaa aga | bge dBG | AGF G2 :|
[2 BAG Adc | BAG AGE | GBd gfe | ded BGA | BGG G2|


Tune 3172	Setting 27396

